X:1
T:West Mabou Reel
M:C
L:1/8
Q:80
C:Trad. arr. M. Grey
S:Reel
K:HP
[| e | \
{gf}g2{a}dg{ef}e2{g}dB | \
{gf}g2{a}dg{a}eage | \
{gf}g2{a}dg{ef}e2{g}dB |
{g}A{d}A{g}BG{g}AB{g}de{gf}g2{a}dg{ef}e2{g}dB | \
{gf}g2{a}dg{a}eage | \
{gf}g2ag{a}gf{g}ed |
{g}ef{a}geag{a}eg|] [ | \
{a}ed{G}dB{Gdc}d2{g}dB | \
{g}A{d}A{g}BG{g}AB{g}dg |
{a}ed{G}dB{Gdc}d2{g}dB | \
{g}eg{a}geag{a}eg{a}ed{G}dB{Gdc}d2{g}dB | \
{g}A{d}A{g}BG{g}AB{g}de |
{gf}g2ag{a}gf{g}ed | \
{g}ef{a}geag{a}eg|]
